src/frontend/assets/denied_icon.svg

<svg width="28" height="25" viewBox="0 0 28 25" fill="none" xmlns="http://www.w3.org/2000/svg">
<path fill-rule="evenodd" clip-rule="evenodd" d="M14 9C14.5523 9 15 9.44771 15 10V15C15 15.5523 14.5523 16 14 16C13.4477 16 13 15.5523 13 15V10C13 9.44771 13.4477 9 14 9Z" fill="#607276"/>
<path fill-rule="evenodd" clip-rule="evenodd" d="M12.5011 0.402734C12.9564 0.138693 13.4734 -0.000366211 13.9998 -0.000366211C14.5261 -0.000366211 15.0431 0.138693 15.4985 0.402734C15.953 0.666328 16.33 1.04514 16.5914 1.50093L16.5927 1.50325L27.5908 20.4999C27.8537 20.9552 27.9923 21.4716 27.9927 21.9973C27.9932 22.523 27.8555 23.0396 27.5935 23.4954C27.3314 23.9511 26.9542 24.33 26.4996 24.5941C26.045 24.8581 25.529 24.9981 25.0033 24.9999L24.9998 25H2.99979L2.99627 24.9999C2.47056 24.9981 1.95456 24.8581 1.49997 24.5941C1.04539 24.33 0.668171 23.9511 0.406117 23.4954C0.144063 23.0396 0.00637136 22.523 0.00683712 21.9973C0.00730281 21.4716 0.145909 20.9552 0.408771 20.4999L11.4069 1.50325L11.4082 1.50093C11.6696 1.04514 12.0466 0.666328 12.5011 0.402734ZM12.2748 1.99995L13.1402 2.50099L2.14081 21.5C2.05334 21.6516 2.00699 21.824 2.00684 21.9991C2.00668 22.1743 2.05258 22.3465 2.13993 22.4984C2.22728 22.6503 2.35302 22.7766 2.50455 22.8647C2.65568 22.9525 2.82718 22.9991 3.00195 23H24.9976C25.1724 22.9991 25.3439 22.9525 25.495 22.8647C25.6466 22.7766 25.7723 22.6504 25.8597 22.4984C25.947 22.3465 25.9929 22.1743 25.9927 21.9991C25.9926 21.8241 25.9465 21.6522 25.8591 21.5005L14.8569 2.49665C14.7704 2.34565 14.6457 2.22015 14.4952 2.13288C14.3447 2.0456 14.1738 1.99963 13.9998 1.99963C13.8258 1.99963 13.6549 2.0456 13.5044 2.13288C13.3539 2.22015 13.2291 2.34565 13.1427 2.49665L12.2748 1.99995Z" fill="#607276"/>
<path d="M14 21C14.8284 21 15.5 20.3284 15.5 19.5C15.5 18.6716 14.8284 18 14 18C13.1716 18 12.5 18.6716 12.5 19.5C12.5 20.3284 13.1716 21 14 21Z" fill="#607276"/>
</svg>

<svg xmlns="http://www.w3.org/2000/svg" width="28" height="25" fill="none" viewBox="0 0 28 25"><path fill="#607276" fill-rule="evenodd" d="M14 9a1 1 0 0 1 1 1v5a1 1 0 1 1-2 0v-5a1 1 0 0 1 1-1" clip-rule="evenodd"/><path fill="#607276" fill-rule="evenodd" d="M12.501.403a2.987 2.987 0 0 1 4.09 1.098l.002.002L27.59 20.5a3 3 0 0 1-2.588 4.5H2.996A3 3 0 0 1 .41 20.5L11.407 1.503l.001-.002A3 3 0 0 1 12.501.403M12.275 2l.865.501-11 18.999a1 1 0 0 0 .862 1.5h21.996a1 1 0 0 0 .861-1.5L14.857 2.497a.988.988 0 0 0-1.714 0z" clip-rule="evenodd"/><path fill="#607276" d="M14 21a1.5 1.5 0 1 0 0-3 1.5 1.5 0 0 0 0 3"/></svg>
